public/assets/img/phone.svg

<svg width="13" height="13" viewBox="0 0 13 13" fill="none" xmlns="http://www.w3.org/2000/svg">
<path d="M4.1471 4.10359C3.37206 4.76214 3.08805 5.96318 3.75727 6.9267C4.38352 7.82835 5.17238 8.61704 6.07382 9.243C7.03737 9.9121 8.23836 9.628 8.89685 8.85293L8.90417 8.85632C9.74526 9.24594 10.6386 9.513 11.5556 9.64908V11.5555L11.5548 11.5555L11.5527 11.5555C5.79332 11.5637 1.43829 7.15803 1.44445 1.44704V1.44444H3.35066L3.35078 1.44529C3.48689 2.36214 3.75383 3.25472 4.14349 4.09578L4.1471 4.10359ZM11.5548 13H12.2778C12.6766 13 13 12.6766 13 12.2778V9.02613C13 8.66821 12.7378 8.36428 12.3838 8.31173L11.7669 8.22018C10.9866 8.10438 10.2271 7.87722 9.51131 7.54567L8.96758 7.29379C8.65249 7.14784 8.27813 7.24678 8.0763 7.52935L7.83016 7.87398C7.61443 8.17601 7.20256 8.26826 6.89769 8.05656C6.1377 7.52882 5.47161 6.86287 4.94363 6.1027C4.73186 5.79781 4.82412 5.38588 5.12621 5.17015L5.47067 4.92416C5.75329 4.72233 5.85224 4.34793 5.70625 4.03282L5.4541 3.48857C5.12253 2.7729 4.89539 2.01337 4.77957 1.23319L4.68797 0.61617C4.63541 0.262137 4.33149 0 3.97358 0H0.72223C0.323357 0 7.38559e-06 0.32335 7.38559e-06 0.722222V1.44548C-0.00701231 7.95013 4.99072 13.0093 11.5548 13Z" fill="#158AFF"/>
</svg>

<svg width="13" height="13" fill="none" xmlns="http://www.w3.org/2000/svg"><path d="M4.147 4.104c-.775.658-1.059 1.86-.39 2.823a9.256 9.256 0 0 0 2.317 2.316c.963.67 2.164.385 2.823-.39l.007.003c.841.39 1.735.657 2.652.793v1.907h-.003c-5.76.008-10.115-4.398-10.109-10.109v-.003h1.907v.001a9.69 9.69 0 0 0 .792 2.65l.004.009ZM11.555 13h.723a.722.722 0 0 0 .722-.722V9.026a.722.722 0 0 0-.616-.714l-.617-.092a8.247 8.247 0 0 1-2.256-.674l-.543-.252a.722.722 0 0 0-.892.235l-.246.345c-.216.302-.627.394-.932.183a7.812 7.812 0 0 1-1.954-1.954c-.212-.305-.12-.717.182-.933l.345-.246a.722.722 0 0 0 .235-.891l-.252-.544a8.245 8.245 0 0 1-.674-2.256L4.688.616A.722.722 0 0 0 3.974 0H.722A.722.722 0 0 0 0 .722v.723C-.007 7.95 4.99 13.01 11.555 13Z" fill="#158AFF"/></svg>
